svgs/sharp-regular/print-magnifying-glass.svg

<svg xmlns="http://www.w3.org/2000/svg" viewBox="0 0 640 512"><!--! Font Awesome Pro 6.6.0 by @fontawesome - https://fontawesome.com License - https://fontawesome.com/license (Commercial License) Copyright 2024 Fonticons, Inc. --><path d="M176 48l0 112-48 0 0-112 0-48 48 0L448 0l64 64 0 96-48 0 0-76.1L428.1 48 176 48zM295.3 368L192 368l0 96 186.2 0c21.1 10.2 44.8 16 69.8 16c16.7 0 32.8-2.6 48-7.3l0 39.3-48 0-256 0-48 0 0-48 0-64-32 0-48 0 0-48 0-112 0-48 48 0 240 0c-17.2 12.9-31.7 29.3-42.6 48L112 240l0 112 32 0 0-32 48 0 96 0c0 16.7 2.6 32.8 7.3 48zM448 400.2a80 80 0 1 0 0-160 80 80 0 1 0 0 160zm0 48c-70.7 0-128-57.3-128-128s57.3-128 128-128s128 57.3 128 128c0 26.7-8.2 51.4-22.1 71.9l63 62.6 17 16.9-33.8 34-17-16.9L520 426c-20.5 14-45.3 22.1-72 22.1z"/></svg>

<svg xmlns="http://www.w3.org/2000/svg" viewBox="0 0 640 512"><!--! Font Awesome Pro 6.4.0 by @fontawesome - https://fontawesome.com License - https://fontawesome.com/license (Commercial License) Copyright 2023 Fonticons, Inc. --><path d="M176 48V160H128V48 0h48H448l64 64v96H464V83.9L428.1 48H176zM295.3 368H192v96H378.2c21.1 10.2 44.8 16 69.8 16c16.7 0 32.8-2.6 48-7.3V512H448 192 144V464 400H112 64V352 240 192h48H352c-17.2 12.9-31.7 29.3-42.6 48H112V352h32V320h48 96c0 16.7 2.6 32.8 7.3 48zM448 400.2a80 80 0 1 0 0-160 80 80 0 1 0 0 160zm0 48c-70.7 0-128-57.3-128-128s57.3-128 128-128s128 57.3 128 128c0 26.7-8.2 51.4-22.1 71.9l63 62.6 17 16.9-33.8 34-17-16.9L520 426c-20.5 14-45.3 22.1-72 22.1z"/></svg>
